svgs/duotone/road-lock.svg

<svg xmlns="http://www.w3.org/2000/svg" viewBox="0 0 640 512"><!--! Font Awesome Pro 6.4.2 by @fontawesome - https://fontawesome.com License - https://fontawesome.com/license (Commercial License) Copyright 2023 Fonticons, Inc. --><path class="fa-primary" style="fill:var(--fa-primary-color,inherit);opacity:var(--fa-primary-opacity,1);" d="M496 272v48h64V272c0-17.7-14.3-32-32-32s-32 14.3-32 32zm-48 48V272c0-44.2 35.8-80 80-80s80 35.8 80 80v48c17.7 0 32 14.3 32 32V480c0 17.7-14.3 32-32 32H448c-17.7 0-32-14.3-32-32V352c0-17.7 14.3-32 32-32z"/><path class="fa-secondary" style="fill:var(--fa-secondary-color,inherit);opacity:var(--fa-secondary-opacity,.4);" d="M213.2 32H288V96c0 17.7 14.3 32 32 32s32-14.3 32-32V32h74.8c27.1 0 51.3 17.1 60.3 42.6l30.4 85.9C460.6 165.8 416 213.7 416 272v24.6c-19.1 11.1-32 31.7-32 55.4V480H352V416c0-17.7-14.3-32-32-32s-32 14.3-32 32v64H86.6C56.5 480 32 455.5 32 425.4c0-6.2 1.1-12.4 3.1-18.2L152.9 74.6C162 49.1 186.1 32 213.2 32zM320 192c-17.7 0-32 14.3-32 32v64c0 17.7 14.3 32 32 32s32-14.3 32-32V224c0-17.7-14.3-32-32-32z"/></svg>

<svg xmlns="http://www.w3.org/2000/svg" viewBox="0 0 640 512"><!--! Font Awesome Pro 6.1.1 by @fontawesome - https://fontawesome.com License - https://fontawesome.com/license (Commercial License) Copyright 2022 Fonticons, Inc. --><defs><style>.fa-secondary{opacity:.4}</style></defs><path class="fa-primary" d="M448 320V272C448 227.8 483.8 192 528 192C572.2 192 608 227.8 608 272V320C625.7 320 640 334.3 640 352V480C640 497.7 625.7 512 608 512H448C430.3 512 416 497.7 416 480V352C416 334.3 430.3 320 448 320zM496 320H560V272C560 254.3 545.7 240 528 240C510.3 240 496 254.3 496 272V320z"/><path class="fa-secondary" d="M213.2 32H288V96C288 113.7 302.3 128 320 128C337.7 128 352 113.7 352 96V32H426.8C453.9 32 478 49.08 487.1 74.63L517.5 160.5C460.6 165.8 416 213.7 416 272V296.6C396.9 307.6 384 328.3 384 352V480H352V416C352 398.3 337.7 384 320 384C302.3 384 288 398.3 288 416V480H86.61C56.45 480 32 455.5 32 425.4C32 419.2 33.06 413 35.13 407.2L152.9 74.63C161.1 49.08 186.1 32 213.2 32H213.2zM288 224V288C288 305.7 302.3 320 320 320C337.7 320 352 305.7 352 288V224C352 206.3 337.7 192 320 192C302.3 192 288 206.3 288 224z"/></svg>
